build/images/form/required.svg

<svg width="29" height="29" viewBox="0 0 29 29" fill="none" xmlns="http://www.w3.org/2000/svg">
<path d="M26.6743 12.1747H20.113L24.7529 7.53479C25.1888 7.09869 25.4337 6.50727 25.4335 5.89064C25.4334 5.27402 25.1883 4.6827 24.7522 4.24677C24.3161 3.81084 23.7247 3.56601 23.1081 3.56614C22.4915 3.56626 21.9002 3.81133 21.4642 4.24744L16.8243 8.88605V2.3247C16.8097 1.71764 16.5584 1.14033 16.1239 0.716122C15.6894 0.291915 15.1062 0.0544434 14.499 0.0544434C13.8917 0.0544434 13.3086 0.291915 12.8741 0.716122C12.4396 1.14033 12.1882 1.71764 12.1736 2.3247V8.88605L7.53504 4.24744C7.09749 3.81932 6.50874 3.58106 5.8966 3.58439C5.28446 3.58772 4.69833 3.83238 4.26548 4.26523C3.83262 4.69809 3.58797 5.28421 3.58464 5.89636C3.58131 6.5085 3.81956 7.09725 4.24768 7.53479L8.8863 12.1747H2.32494C1.71788 12.1893 1.14057 12.4407 0.716367 12.8752C0.292159 13.3097 0.0546875 13.8928 0.0546875 14.5001C0.0546875 15.1073 0.292159 15.6905 0.716367 16.125C1.14057 16.5594 1.71788 16.8108 2.32494 16.8254H8.8863L4.24768 21.4653C3.81956 21.9029 3.58131 22.4916 3.58464 23.1038C3.58797 23.7159 3.83262 24.302 4.26548 24.7349C4.69833 25.1677 5.28446 25.4124 5.8966 25.4157C6.50874 25.419 7.09749 25.1808 7.53504 24.7527L12.175 20.1127V26.6741C12.1676 26.9841 12.2222 27.2925 12.3357 27.5812C12.4492 27.8698 12.6193 28.1328 12.836 28.3547C13.0527 28.5766 13.3115 28.753 13.5973 28.8734C13.8831 28.9938 14.1902 29.0558 14.5003 29.0558C14.8104 29.0558 15.1175 28.9938 15.4033 28.8734C15.6891 28.753 15.9479 28.5766 16.1646 28.3547C16.3813 28.1328 16.5514 27.8698 16.6649 27.5812C16.7784 27.2925 16.833 26.9841 16.8256 26.6741V20.1127L21.4642 24.7527C21.9002 25.1888 22.4915 25.4338 23.1081 25.434C23.7247 25.4341 24.3161 25.1893 24.7522 24.7533C25.1883 24.3174 25.4334 23.7261 25.4335 23.1095C25.4337 22.4928 25.1888 21.9014 24.7529 21.4653L20.113 16.824H26.6743C26.9844 16.8315 27.2928 16.7768 27.5814 16.6633C27.87 16.5498 28.133 16.3797 28.3549 16.163C28.5769 15.9464 28.7532 15.6875 28.8736 15.4017C28.994 15.1159 29.056 14.8089 29.056 14.4987C29.056 14.1886 28.994 13.8816 28.8736 13.5957C28.7532 13.3099 28.5769 13.0511 28.3549 12.8344C28.133 12.6178 27.87 12.4477 27.5814 12.3341C27.2928 12.2206 26.9844 12.166 26.6743 12.1734V12.1747Z" fill="white"/>
</svg>

<svg width="29" height="29" fill="none" xmlns="http://www.w3.org/2000/svg"><path d="M26.674 12.175h-6.561l4.64-4.64a2.325 2.325 0 10-3.289-3.288l-4.64 4.639V2.325a2.326 2.326 0 00-4.65 0v6.561L7.535 4.247a2.325 2.325 0 00-3.287 3.288l4.638 4.64H2.325a2.326 2.326 0 000 4.65h6.561l-4.638 4.64a2.325 2.325 0 003.287 3.288l4.64-4.64v6.561a2.327 2.327 0 003.99 1.68 2.325 2.325 0 00.66-1.68v-6.561l4.64 4.64a2.326 2.326 0 003.288-3.288l-4.64-4.641h6.561a2.325 2.325 0 100-4.65z" fill="#fff"/></svg>
